modules/blazium_sdk/icons/POGRClient.svg

<svg xmlns="http://www.w3.org/2000/svg" xml:space="preserve" viewBox="0 0 256 256"><g fill="#F079F2"><path d="M218.4 29.2c-11.6 3.1-18.9 15.3-16 26.5.4 1.4.6 2.7.4 2.8-.9.8-27.3 18.9-27.8 19.1-.4.2-1.7-.4-2.9-1.2-2.9-2-6.8-3.3-10.6-3.5-6.5-.5-12.3 1.8-17.2 6.7l-3 2.9-11.3-3.9-11.3-3.9-.6-3.8c-1.2-8.1-4.5-13.4-10.9-17.2-2.9-1.7-7.7-3-11.1-3-9.5 0-18.2 6.5-21 15.6-1.1 3.5-1.2 9.1-.3 12.1l.6 2.1-14.2 10-14.2 9.9-2.3-1.5c-12.8-8.6-30-2-33.9 13-4.1 15.7 11 30.7 26.6 26.6 11.8-3 19.2-15.2 16.3-26.4l-.6-2.4 1.4-1.1c3.3-2.4 26.4-18.4 26.9-18.6.3-.1 1.5.5 2.7 1.2 8.5 5.9 20.3 4.5 27.8-3.1l2.9-3 11.3 3.9 11.4 3.9.5 3.9c.9 6.5 3 10.7 7.2 14.5 12 10.8 31.2 5.4 36-10 .9-3.1 1-5.2.3-13-.1-1.3.6-1.8 13.9-11.1l14-9.7 2.2 1.5c12.7 8.6 29.9 1.9 33.8-13C249.4 40 234.2 24.9 218.4 29.2zM227.3 40.1c4 1.2 7.7 6.3 7.7 10.5 0 5.7-5.3 11.1-11.1 11.1-2.9 0-5.3-1.1-7.6-3.5-4.7-4.7-4.7-10.6 0-15.2C219.5 39.7 223 38.8 227.3 40.1zM101.4 63.1c2.6 1.4 4.8 4.4 5.4 7.4 1.1 4.6-1.4 9.7-5.7 11.9-1.5.8-2.8 1-5.2 1.1-2.8 0-3.5-.2-5.5-1.4-7.8-4.9-6.7-16.6 2-19.9C94.8 61.4 98.9 61.7 101.4 63.1zM165.7 85.5c1.3.8 2.7 2.2 3.5 3.5 1.2 2 1.4 2.7 1.4 5.8 0 3.1-.1 3.8-1.4 5.8-1.9 3.1-4.8 4.8-8.6 5.1-2.5.2-3.2 0-5.4-1.1-9.1-4.7-8-17.2 1.8-20.5C159.3 83.4 163.5 84 165.7 85.5zM35.5 106.4c2.5.7 6.4 4.6 7.1 7.1 1.3 4.3.4 7.8-2.9 11-4.7 4.7-10.6 4.7-15.2 0-4.7-4.7-4.7-10.6 0-15.2C27.7 106.1 31.2 105.2 35.5 106.4zM206.1 95.5c-1.9.8-3.8 3.2-4.1 5-.1.8-.2 28.7-.1 62 .1 60.3.1 60.5 1.1 61.7.5.7 1.5 1.7 2.2 2.2 1.2.9 1.8 1 18.7 1 16.9 0 17.5 0 18.7-1 .7-.5 1.7-1.5 2.2-2.2 1-1.2 1-1.4 1-63 0-61.6 0-61.7-1-63-.5-.7-1.5-1.7-2.2-2.2-1.2-.9-1.9-1-18.2-1.1C211.1 94.9 207.2 95 206.1 95.5z"/><path d="M78.7 117.5c-.6.3-1.7.9-2.2 1.5-2.5 2.4-2.4-.4-2.4 53.5v50l1.1 1.5c.6.8 1.6 2 2.3 2.5 1.2.9 1.9 1 18.1 1.1 16 .1 16.9.1 18.6-.8 1-.5 2.3-1.7 2.9-2.7l1.1-1.8v-50-50l-1.1-1.8c-.6-1-1.8-2.1-2.9-2.6-1.7-.9-2.7-.9-18-.9C86.4 117 79.4 117.2 78.7 117.5zM141.7 140.1c-1 .6-2.3 1.8-2.8 2.7-1 1.6-1 2.1-1 40.6s0 39 1 40.6c.5.9 1.8 2.1 2.8 2.7 1.8 1 1.9 1 18.7.9 16.3-.1 17-.2 18.2-1.1.7-.5 1.8-1.7 2.4-2.5l1-1.5v-39-39l-1-1.5c-.6-.8-1.7-2-2.4-2.5-1.2-.9-1.9-1-18.2-1.1C143.5 139.1 143.4 139.1 141.7 140.1zM14.4 161.8c-1.9.8-3.8 3.2-4.1 5-.1.8-.2 13.7-.1 28.8.1 26.7.1 27.3 1.1 28.5.5.7 1.5 1.7 2.2 2.2 1.2.9 1.8 1 18.7 1 16.9 0 17.5 0 18.7-1 .7-.5 1.7-1.5 2.2-2.2 1-1.2 1-1.7 1-29.8s0-28.5-1-29.8c-.5-.7-1.5-1.7-2.2-2.2-1.2-.9-1.9-1-18.2-1.1C19.3 161.2 15.5 161.3 14.4 161.8z"/></g></svg>

<svg xmlns="http://www.w3.org/2000/svg" xml:space="preserve" fill-rule="evenodd" stroke-linejoin="round" stroke-miterlimit="2" clip-rule="evenodd" viewBox="0 0 16 16"><path fill="#f079f2" fill-rule="nonzero" d="M218.4,29.2C206.8,32.3 199.5,44.5 202.4,55.7C202.8,57.1 203,58.4 202.8,58.5C201.9,59.3 175.5,77.4 175,77.6C174.6,77.8 173.3,77.2 172.1,76.4C169.2,74.4 165.3,73.1 161.5,72.9C155,72.4 149.2,74.7 144.3,79.6L141.3,82.5L118.7,74.7L118.1,70.9C116.9,62.8 113.6,57.5 107.2,53.7C104.3,52 99.5,50.7 96.1,50.7C86.6,50.7 77.9,57.2 75.1,66.3C74,69.8 73.9,75.4 74.8,78.4L75.4,80.5L61.2,90.5L47,100.4L44.7,98.9C31.9,90.3 14.7,96.9 10.8,111.9C6.7,127.6 21.8,142.6 37.4,138.5C49.2,135.5 56.6,123.3 53.7,112.1L53.1,109.7L54.5,108.6C57.8,106.2 80.9,90.2 81.4,90C81.7,89.9 82.9,90.5 84.1,91.2C92.6,97.1 104.4,95.7 111.9,88.1L114.8,85.1L126.1,89L137.5,92.9L138,96.8C138.9,103.3 141,107.5 145.2,111.3C157.2,122.1 176.4,116.7 181.2,101.3C182.1,98.2 182.2,96.1 181.5,88.3C181.4,87 182.1,86.5 195.4,77.2L209.4,67.5L211.6,69C224.3,77.6 241.5,70.9 245.4,56C249.4,40 234.2,24.9 218.4,29.2ZM227.3,40.1C231.3,41.3 235,46.4 235,50.6C235,56.3 229.7,61.7 223.9,61.7C221,61.7 218.6,60.6 216.3,58.2C211.6,53.5 211.6,47.6 216.3,43C219.5,39.7 223,38.8 227.3,40.1ZM101.4,63.1C104,64.5 106.2,67.5 106.8,70.5C107.9,75.1 105.4,80.2 101.1,82.4C99.6,83.2 98.3,83.4 95.9,83.5C93.1,83.5 92.4,83.3 90.4,82.1C82.6,77.2 83.7,65.5 92.4,62.2C94.8,61.4 98.9,61.7 101.4,63.1ZM165.7,85.5C167,86.3 168.4,87.7 169.2,89C170.4,91 170.6,91.7 170.6,94.8C170.6,97.9 170.5,98.6 169.2,100.6C167.3,103.7 164.4,105.4 160.6,105.7C158.1,105.9 157.4,105.7 155.2,104.6C146.1,99.9 147.2,87.4 157,84.1C159.3,83.4 163.5,84 165.7,85.5ZM35.5,106.4C38,107.1 41.9,111 42.6,113.5C43.9,117.8 43,121.3 39.7,124.5C35,129.2 29.1,129.2 24.5,124.5C19.8,119.8 19.8,113.9 24.5,109.3C27.7,106.1 31.2,105.2 35.5,106.4ZM206.1,95.5C204.2,96.3 202.3,98.7 202,100.5C201.9,101.3 201.8,129.2 201.9,162.5C202,222.8 202,223 203,224.2C203.5,224.9 204.5,225.9 205.2,226.4C206.4,227.3 207,227.4 223.9,227.4C240.8,227.4 241.4,227.4 242.6,226.4C243.3,225.9 244.3,224.9 244.8,224.2C245.8,223 245.8,222.8 245.8,161.2C245.8,99.6 245.8,99.5 244.8,98.2C244.3,97.5 243.3,96.5 242.6,96C241.4,95.1 240.7,95 224.4,94.9C211.1,94.9 207.2,95 206.1,95.5Z" transform="translate(.446 .416)scale(.05963)"/><path fill="#f079f2" fill-rule="nonzero" d="M78.7,117.5C78.1,117.8 77,118.4 76.5,119C74,121.4 74.1,118.6 74.1,172.5L74.1,222.5L75.2,224C75.8,224.8 76.8,226 77.5,226.5C78.7,227.4 79.4,227.5 95.6,227.6C111.6,227.7 112.5,227.7 114.2,226.8C115.2,226.3 116.5,225.1 117.1,224.1L118.2,222.3L118.2,122.3L117.1,120.5C116.5,119.5 115.3,118.4 114.2,117.9C112.5,117 111.5,117 96.2,117C86.4,117 79.4,117.2 78.7,117.5ZM141.7,140.1C140.7,140.7 139.4,141.9 138.9,142.8C137.9,144.4 137.9,144.9 137.9,183.4C137.9,221.9 137.9,222.4 138.9,224C139.4,224.9 140.7,226.1 141.7,226.7C143.5,227.7 143.6,227.7 160.4,227.6C176.7,227.5 177.4,227.4 178.6,226.5C179.3,226 180.4,224.8 181,224L182,222.5L182,144.5L181,143C180.4,142.2 179.3,141 178.6,140.5C177.4,139.6 176.7,139.5 160.4,139.4C143.5,139.1 143.4,139.1 141.7,140.1ZM14.4,161.8C12.5,162.6 10.6,165 10.3,166.8C10.2,167.6 10.1,180.5 10.2,195.6C10.3,222.3 10.3,222.9 11.3,224.1C11.8,224.8 12.8,225.8 13.5,226.3C14.7,227.2 15.3,227.3 32.2,227.3C49.1,227.3 49.7,227.3 50.9,226.3C51.6,225.8 52.6,224.8 53.1,224.1C54.1,222.9 54.1,222.4 54.1,194.3C54.1,166.2 54.1,165.8 53.1,164.5C52.6,163.8 51.6,162.8 50.9,162.3C49.7,161.4 49,161.3 32.7,161.2C19.3,161.2 15.5,161.3 14.4,161.8Z" transform="translate(.446 .416)scale(.05963)"/></svg>
